X:1952
T:Box in the Case Arr Gary Blair
M:4/4
L:1/8
C:seamus O'Sullivan
R:reel
K:BMin
"Bm"B,2 BA BFDF|"A"(3EEE) AE cEAE|"Bm"=F^FBA BFDF|"F#7"EFDE CDB,^A,|
"Bm"B,2 BA BFDF|"A"(3EEE) AE cEAE|"G"B^cdc "D"BFDF|"F#7"(3E=F^F) DC"Bm"B
,2z2:||
"D"(3DDD) FD A,DFD|"Em"(3E^DE) GE "A" B,EGE|"D"(3DDD) FD A,DFD|"Em"E^DEF
"A7"GABc|"Bm"dD (3DCD) FDB,D|"A"EAce dcBA|"G"(3Bcd) "D"cB AFDF|
"F#7"(3E=F^F) "Bm"DC B,2 z2|


